X:107
T:Germans II
M:4/4
K:D
F:http://blackrosetheband.googlepages.com/ABCTUNES.ABC May 2009
L:1/8
FG|:"D"ABAF A2 de|fgfe d2 A2|"G"BcdB "D"ABAF|"A"G2 E2 E2 FG|
"D"ABAF A2 de|fgfe d2 A2|"G"BcdB "A"ABAG|1 "D"F2 D2 D2 FG:|2 "D"F2 D2 D2 g2|
|:"D"fefg afde|fefg a2 f2|"G"gabg "D"fgaf|"A"edef e2 FG|
"D"ABAF A2 de|fgfe d2 A2|"G"BcdB "A"ABAG|1 "D"F2 D2 D2 g2:|2 "D"F2 D2 D2 FG||
